Newaita-dark/apps/16/preferences-desktop-notification-bell.svg

<svg height="16" viewBox="0 0 16 16" width="16" xmlns="http://www.w3.org/2000/svg" xmlns:xlink="http://www.w3.org/1999/xlink"><linearGradient id="a"><stop offset="0" stop-opacity=".313726"/><stop offset=".222222" stop-opacity=".27451"/><stop offset="1" stop-opacity="0"/></linearGradient><radialGradient id="b" cx="450.908936" cy="189.579361" gradientTransform="matrix(.00000009 -.0390662 -.0703192 -.00000005 21.269293 31.797665)" gradientUnits="userSpaceOnUse" r="21.166656" xlink:href="#a"/><radialGradient id="c" cx="450.908936" cy="189.579361" gradientTransform="matrix(-.00000009 .0390662 .0703192 .00000005 -5.392777 -3.76374)" gradientUnits="userSpaceOnUse" r="21.166656" xlink:href="#a"/><radialGradient id="d" cx="450.908936" cy="189.579361" gradientTransform="matrix(-.00000009 -.0390662 .0703192 -.00000005 -5.392777 31.797665)" gradientUnits="userSpaceOnUse" r="21.166656" xlink:href="#a"/><radialGradient id="e" cx="450.908936" cy="189.579361" gradientTransform="matrix(.00000009 .0390662 -.0703192 .00000005 21.269292 -3.763741)" gradientUnits="userSpaceOnUse" r="21.166656" xlink:href="#a"/><linearGradient id="f" gradientTransform="matrix(.00668004 0 0 .0249743 6.232691 8.318354)" gradientUnits="userSpaceOnUse" x1="255.322968" x2="255.323044" y1="228.178589" y2="254.666656"><stop offset="0" stop-opacity=".27451"/><stop offset="1" stop-opacity="0"/></linearGradient><linearGradient id="g"><stop offset="0" stop-color="#ffa726"/><stop offset="1" stop-color="#ffb74d"/></linearGradient><linearGradient id="h" gradientUnits="userSpaceOnUse" x1="8.59978349997" x2="8.59978349997" xlink:href="#g" y1="12.69392400002" y2="14.0169675"/><linearGradient id="i" gradientUnits="userSpaceOnUse" x1="7.60750125002" x2="7.60750125002" xlink:href="#g" y1="3.43261799998" y2="1.44805300003"/><linearGradient id="j" gradientUnits="userSpaceOnUse" x1="7.9382592" x2="7.9382592" xlink:href="#g" y1="14.01696600048" y2="1.44805535241"/><path d="m8.105469 14.015625h1.320312v-.660156h-1.320312zm0 0" fill="url(#b)"/><path d="m7.773438 14.015625h-1.324219v.664063h1.324219zm0 0" fill="url(#c)"/><path d="m7.773438 14.015625h-1.324219v-.660156h1.324219zm0 0" fill="url(#d)"/><path d="m8.105469 14.015625h1.320312v.664063h-1.320312zm0 0" fill="url(#e)"/><path d="m7.773438 14.019531h.332031v.660157h-.332031zm0 0" fill="url(#f)"/><path d="m7.9375 11.371094c.730469 0 1.324219.59375 1.324219 1.324218 0 .730469-.59375 1.320313-1.324219 1.320313s-1.324219-.589844-1.324219-1.320313c0-.730468.59375-1.324218 1.324219-1.324218zm0 0" fill="url(#h)"/><path d="m6.621094 12.570312c-.003906.039063-.007813.082032-.007813.125 0 .730469.59375 1.320313 1.324219 1.320313.734375 0 1.324219-.589844 1.324219-1.320313 0-.042968-.003907-.085937-.007813-.125-.058594.675782-.625 1.199219-1.316406 1.199219s-1.253906-.523437-1.316406-1.199219zm0 0" fill-opacity=".235294"/><path d="m253.975747 148.840255c23.372768 0 42.370953 18.998186 42.370953 42.370954s-18.998185 42.245965-42.370953 42.245965-42.370954-18.873197-42.370954-42.245965 18.998186-42.370954 42.370954-42.370954zm0 0" fill="none" stroke="#212121" stroke-linecap="round" stroke-linejoin="round" stroke-width="3" transform="matrix(.031253 0 0 .031253 0 6.719392)"/><path d="m7.9375 1.449219c.367188 0 .664062.296875.664062.660156v.660156c0 .367188-.296874.664063-.664062.664063-.363281 0-.660156-.296875-.660156-.664063v-.660156c0-.363281.296875-.660156.660156-.660156zm0 0" fill="url(#i)"/><path d="m7.9375 1.449219c-.367188 0-.660156.292969-.660156.660156v.25c0-.367187.292968-.664063.660156-.664063s.664062.296876.664062.664063v-.25c0-.367187-.296874-.660156-.664062-.660156zm0 0" fill="#fff" fill-opacity=".392157"/><path d="m253.975747-168.629428c11.748878 0 21.24797 9.499093 21.24797 21.122983v21.122983c0 11.748878-9.499092 21.24797-21.24797 21.24797-11.62389 0-21.122983-9.499092-21.122983-21.24797v-21.122983c0-11.62389 9.499093-21.122983 21.122983-21.122983zm0 0" fill="none" stroke="#212121" stroke-linecap="round" stroke-linejoin="round" stroke-width="3" transform="matrix(.031253 0 0 .031253 0 6.719392)"/><path d="m7.9375 2.109375c-2.199219 0-3.96875 1.769531-3.96875 3.96875v3.804687l-1.207031 1.8125c-.292969.4375.019531 1.023438.546875 1.023438h9.261718c.523438 0 .839844-.585938.546876-1.023438l-1.210938-1.8125v-3.804687c0-2.199219-1.769531-3.96875-3.96875-3.96875zm0 0" fill="url(#j)"/><path d="m7.9375 2.109375c-2.199219 0-3.96875 1.769531-3.96875 3.96875v.164063c0-2.195313 1.769531-3.96875 3.96875-3.96875s3.96875 1.773437 3.96875 3.96875v-.164063c0-2.199219-1.769531-3.96875-3.96875-3.96875zm-3.96875 7.773437-1.207031 1.8125c-.097657.140626-.128907.300782-.109375.445313.011718-.09375.046875-.1875.109375-.277344l1.207031-1.816406zm7.9375 0v.164063l1.210938 1.816406c.058593.089844.09375.183594.105468.277344.019532-.144531-.011718-.304687-.105468-.445313zm0 0" fill="#fff" fill-opacity=".392157"/><path d="m2.652344 11.976562c-.046875.371094.238281.742188.65625.742188h9.261718c.417969 0 .699219-.371094.652344-.742188-.039062.308594-.296875.578126-.652344.578126h-9.261718c-.355469 0-.617188-.269532-.65625-.578126zm0 0" fill-opacity=".235294"/><path d="m959.908384 255.093763c-265.958868 0-479.954192 213.995324-479.954192 479.954192v460.113566l-145.97032 219.191678c-35.42969 52.908336 2.361979 123.767715 66.13542 123.767715h1120.05058c63.301045 0 101.565109-70.859379 66.13542-123.767715l-146.442716-219.191678v-460.113566c0-265.958868-213.995324-479.954192-479.954192-479.954192zm0 0" fill="none" stroke="#212121" stroke-linecap="round" stroke-linejoin="round" stroke-width="11.338583" transform="scale(.00826902)"/><path d="m6.617188 12.777344c.003906.054687.011718.109375.019531.164062h2.601562c.011719-.054687.015625-.109375.019531-.164062zm0 0" fill-opacity=".235294"/><path d="m6.714844 3.351562c.238281.136719.207031.632813-.066406 1.105469-.273438.476563-.6875.75-.925782.613281-.238281-.140624-.207031-.632812.066406-1.109374.273438-.472657.6875-.746094.925782-.609376zm0 0" fill="#fff" fill-opacity=".196078"/></svg>

<?xml version="1.0" encoding="UTF-8"?>
<svg xmlns="http://www.w3.org/2000/svg" xmlns:xlink="http://www.w3.org/1999/xlink" width="16px" height="16px" viewBox="0 0 16 16" version="1.1">
<defs>
<radialGradient id="radial0" gradientUnits="userSpaceOnUse" cx="450.908936" cy="189.579361" fx="450.908936" fy="189.579361" r="21.166656" gradientTransform="matrix(0.0000000870852,-0.0390662,-0.0703192,-0.0000000507693,21.269293,31.797665)">
<stop offset="0" style="stop-color:rgb(0%,0%,0%);stop-opacity:0.313726;"/>
<stop offset="0.222222" style="stop-color:rgb(0%,0%,0%);stop-opacity:0.27451;"/>
<stop offset="1" style="stop-color:rgb(0%,0%,0%);stop-opacity:0;"/>
</radialGradient>
<radialGradient id="radial1" gradientUnits="userSpaceOnUse" cx="450.908936" cy="189.579361" fx="450.908936" fy="189.579361" r="21.166656" gradientTransform="matrix(-0.0000000870852,0.0390662,0.0703192,0.0000000507693,-5.392777,-3.76374)">
<stop offset="0" style="stop-color:rgb(0%,0%,0%);stop-opacity:0.313726;"/>
<stop offset="0.222222" style="stop-color:rgb(0%,0%,0%);stop-opacity:0.27451;"/>
<stop offset="1" style="stop-color:rgb(0%,0%,0%);stop-opacity:0;"/>
</radialGradient>
<radialGradient id="radial2" gradientUnits="userSpaceOnUse" cx="450.908936" cy="189.579361" fx="450.908936" fy="189.579361" r="21.166656" gradientTransform="matrix(-0.0000000870852,-0.0390662,0.0703192,-0.0000000507693,-5.392777,31.797665)">
<stop offset="0" style="stop-color:rgb(0%,0%,0%);stop-opacity:0.313726;"/>
<stop offset="0.222222" style="stop-color:rgb(0%,0%,0%);stop-opacity:0.27451;"/>
<stop offset="1" style="stop-color:rgb(0%,0%,0%);stop-opacity:0;"/>
</radialGradient>
<radialGradient id="radial3" gradientUnits="userSpaceOnUse" cx="450.908936" cy="189.579361" fx="450.908936" fy="189.579361" r="21.166656" gradientTransform="matrix(0.0000000870852,0.0390662,-0.0703192,0.0000000507693,21.269292,-3.763741)">
<stop offset="0" style="stop-color:rgb(0%,0%,0%);stop-opacity:0.313726;"/>
<stop offset="0.222222" style="stop-color:rgb(0%,0%,0%);stop-opacity:0.27451;"/>
<stop offset="1" style="stop-color:rgb(0%,0%,0%);stop-opacity:0;"/>
</radialGradient>
<linearGradient id="linear0" gradientUnits="userSpaceOnUse" x1="255.322968" y1="228.178589" x2="255.323044" y2="254.666656" gradientTransform="matrix(0.00668004,0,0,0.0249743,6.232691,8.318354)">
<stop offset="0" style="stop-color:rgb(0%,0%,0%);stop-opacity:0.27451;"/>
<stop offset="1" style="stop-color:rgb(0%,0%,0%);stop-opacity:0;"/>
</linearGradient>
<linearGradient id="linear1" gradientUnits="userSpaceOnUse" x1="275.166656" y1="191.166672" x2="275.166656" y2="233.5" gradientTransform="matrix(0.031253,0,0,0.031253,0,6.719392)">
<stop offset="0" style="stop-color:rgb(100%,65.490198%,14.901961%);stop-opacity:1;"/>
<stop offset="1" style="stop-color:rgb(100%,71.764708%,30.19608%);stop-opacity:1;"/>
</linearGradient>
<linearGradient id="linear2" gradientUnits="userSpaceOnUse" x1="243.416672" y1="-105.166672" x2="243.416672" y2="-168.666656" gradientTransform="matrix(0.031253,0,0,0.031253,0,6.719392)">
<stop offset="0" style="stop-color:rgb(100%,65.490198%,14.901961%);stop-opacity:1;"/>
<stop offset="1" style="stop-color:rgb(100%,71.764708%,30.19608%);stop-opacity:1;"/>
</linearGradient>
<linearGradient id="linear3" gradientUnits="userSpaceOnUse" x1="960" y1="1695.118164" x2="960" y2="175.118134" gradientTransform="matrix(0.00826902,0,0,0.00826902,0,0)">
<stop offset="0" style="stop-color:rgb(100%,65.490198%,14.901961%);stop-opacity:1;"/>
<stop offset="1" style="stop-color:rgb(100%,71.764708%,30.19608%);stop-opacity:1;"/>
</linearGradient>
</defs>
<g id="surface1">
<path style=" stroke:none;fill-rule:nonzero;fill:url(#radial0);" d="M 8.105469 14.015625 L 9.425781 14.015625 L 9.425781 13.355469 L 8.105469 13.355469 Z M 8.105469 14.015625 "/>
<path style=" stroke:none;fill-rule:nonzero;fill:url(#radial1);" d="M 7.773438 14.015625 L 6.449219 14.015625 L 6.449219 14.679688 L 7.773438 14.679688 Z M 7.773438 14.015625 "/>
<path style=" stroke:none;fill-rule:nonzero;fill:url(#radial2);" d="M 7.773438 14.015625 L 6.449219 14.015625 L 6.449219 13.355469 L 7.773438 13.355469 Z M 7.773438 14.015625 "/>
<path style=" stroke:none;fill-rule:nonzero;fill:url(#radial3);" d="M 8.105469 14.015625 L 9.425781 14.015625 L 9.425781 14.679688 L 8.105469 14.679688 Z M 8.105469 14.015625 "/>
<path style=" stroke:none;fill-rule:nonzero;fill:url(#linear0);" d="M 7.773438 14.019531 L 8.105469 14.019531 L 8.105469 14.679688 L 7.773438 14.679688 Z M 7.773438 14.019531 "/>
<path style=" stroke:none;fill-rule:nonzero;fill:url(#linear1);" d="M 7.9375 11.371094 C 8.667969 11.371094 9.261719 11.964844 9.261719 12.695312 C 9.261719 13.425781 8.667969 14.015625 7.9375 14.015625 C 7.207031 14.015625 6.613281 13.425781 6.613281 12.695312 C 6.613281 11.964844 7.207031 11.371094 7.9375 11.371094 Z M 7.9375 11.371094 "/>
<path style=" stroke:none;fill-rule:nonzero;fill:rgb(0%,0%,0%);fill-opacity:0.235294;" d="M 6.621094 12.570312 C 6.617188 12.609375 6.613281 12.652344 6.613281 12.695312 C 6.613281 13.425781 7.207031 14.015625 7.9375 14.015625 C 8.671875 14.015625 9.261719 13.425781 9.261719 12.695312 C 9.261719 12.652344 9.257812 12.609375 9.253906 12.570312 C 9.195312 13.246094 8.628906 13.769531 7.9375 13.769531 C 7.246094 13.769531 6.683594 13.246094 6.621094 12.570312 Z M 6.621094 12.570312 "/>
<path style="fill:none;stroke-width:3;stroke-linecap:round;stroke-linejoin:round;stroke:rgb(12.941177%,12.941177%,12.941177%);stroke-opacity:1;stroke-miterlimit:4;" d="M 253.975747 148.840255 C 277.348515 148.840255 296.3467 167.838441 296.3467 191.211209 C 296.3467 214.583977 277.348515 233.457174 253.975747 233.457174 C 230.602979 233.457174 211.604793 214.583977 211.604793 191.211209 C 211.604793 167.838441 230.602979 148.840255 253.975747 148.840255 Z M 253.975747 148.840255 " transform="matrix(0.031253,0,0,0.031253,0,6.719392)"/>
<path style=" stroke:none;fill-rule:nonzero;fill:url(#linear2);" d="M 7.9375 1.449219 C 8.304688 1.449219 8.601562 1.746094 8.601562 2.109375 L 8.601562 2.769531 C 8.601562 3.136719 8.304688 3.433594 7.9375 3.433594 C 7.574219 3.433594 7.277344 3.136719 7.277344 2.769531 L 7.277344 2.109375 C 7.277344 1.746094 7.574219 1.449219 7.9375 1.449219 Z M 7.9375 1.449219 "/>
<path style=" stroke:none;fill-rule:nonzero;fill:rgb(100%,100%,100%);fill-opacity:0.392157;" d="M 7.9375 1.449219 C 7.570312 1.449219 7.277344 1.742188 7.277344 2.109375 L 7.277344 2.359375 C 7.277344 1.992188 7.570312 1.695312 7.9375 1.695312 C 8.304688 1.695312 8.601562 1.992188 8.601562 2.359375 L 8.601562 2.109375 C 8.601562 1.742188 8.304688 1.449219 7.9375 1.449219 Z M 7.9375 1.449219 "/>
<path style="fill:none;stroke-width:3;stroke-linecap:round;stroke-linejoin:round;stroke:rgb(12.941177%,12.941177%,12.941177%);stroke-opacity:1;stroke-miterlimit:4;" d="M 253.975747 -168.629428 C 265.724625 -168.629428 275.223717 -159.130335 275.223717 -147.506445 L 275.223717 -126.383462 C 275.223717 -114.634584 265.724625 -105.135492 253.975747 -105.135492 C 242.351857 -105.135492 232.852764 -114.634584 232.852764 -126.383462 L 232.852764 -147.506445 C 232.852764 -159.130335 242.351857 -168.629428 253.975747 -168.629428 Z M 253.975747 -168.629428 " transform="matrix(0.031253,0,0,0.031253,0,6.719392)"/>
<path style=" stroke:none;fill-rule:nonzero;fill:url(#linear3);" d="M 7.9375 2.109375 C 5.738281 2.109375 3.96875 3.878906 3.96875 6.078125 L 3.96875 9.882812 L 2.761719 11.695312 C 2.46875 12.132812 2.78125 12.71875 3.308594 12.71875 L 12.570312 12.71875 C 13.09375 12.71875 13.410156 12.132812 13.117188 11.695312 L 11.90625 9.882812 L 11.90625 6.078125 C 11.90625 3.878906 10.136719 2.109375 7.9375 2.109375 Z M 7.9375 2.109375 "/>
<path style=" stroke:none;fill-rule:nonzero;fill:rgb(100%,100%,100%);fill-opacity:0.392157;" d="M 7.9375 2.109375 C 5.738281 2.109375 3.96875 3.878906 3.96875 6.078125 L 3.96875 6.242188 C 3.96875 4.046875 5.738281 2.273438 7.9375 2.273438 C 10.136719 2.273438 11.90625 4.046875 11.90625 6.242188 L 11.90625 6.078125 C 11.90625 3.878906 10.136719 2.109375 7.9375 2.109375 Z M 3.96875 9.882812 L 2.761719 11.695312 C 2.664062 11.835938 2.632812 11.996094 2.652344 12.140625 C 2.664062 12.046875 2.699219 11.953125 2.761719 11.863281 L 3.96875 10.046875 Z M 11.90625 9.882812 L 11.90625 10.046875 L 13.117188 11.863281 C 13.175781 11.953125 13.210938 12.046875 13.222656 12.140625 C 13.242188 11.996094 13.210938 11.835938 13.117188 11.695312 Z M 11.90625 9.882812 "/>
<path style=" stroke:none;fill-rule:nonzero;fill:rgb(0%,0%,0%);fill-opacity:0.235294;" d="M 2.652344 11.976562 C 2.605469 12.347656 2.890625 12.71875 3.308594 12.71875 L 12.570312 12.71875 C 12.988281 12.71875 13.269531 12.347656 13.222656 11.976562 C 13.183594 12.285156 12.925781 12.554688 12.570312 12.554688 L 3.308594 12.554688 C 2.953125 12.554688 2.691406 12.285156 2.652344 11.976562 Z M 2.652344 11.976562 "/>
<path style="fill:none;stroke-width:11.338583;stroke-linecap:round;stroke-linejoin:round;stroke:rgb(12.941177%,12.941177%,12.941177%);stroke-opacity:1;stroke-miterlimit:4;" d="M 959.908384 255.093763 C 693.949516 255.093763 479.954192 469.089087 479.954192 735.047955 L 479.954192 1195.161521 L 333.983872 1414.353199 C 298.554182 1467.261535 336.345851 1538.120914 400.119292 1538.120914 L 1520.169872 1538.120914 C 1583.470917 1538.120914 1621.734981 1467.261535 1586.305292 1414.353199 L 1439.862576 1195.161521 L 1439.862576 735.047955 C 1439.862576 469.089087 1225.867252 255.093763 959.908384 255.093763 Z M 959.908384 255.093763 " transform="matrix(0.00826902,0,0,0.00826902,0,0)"/>
<path style=" stroke:none;fill-rule:nonzero;fill:rgb(0%,0%,0%);fill-opacity:0.235294;" d="M 6.617188 12.777344 C 6.621094 12.832031 6.628906 12.886719 6.636719 12.941406 L 9.238281 12.941406 C 9.25 12.886719 9.253906 12.832031 9.257812 12.777344 Z M 6.617188 12.777344 "/>
<path style=" stroke:none;fill-rule:nonzero;fill:rgb(100%,100%,100%);fill-opacity:0.196078;" d="M 6.714844 3.351562 C 6.953125 3.488281 6.921875 3.984375 6.648438 4.457031 C 6.375 4.933594 5.960938 5.207031 5.722656 5.070312 C 5.484375 4.929688 5.515625 4.4375 5.789062 3.960938 C 6.0625 3.488281 6.476562 3.214844 6.714844 3.351562 Z M 6.714844 3.351562 "/>
</g>
</svg>
